X: 29744
T: Nyth Y Gwcw
R: barndance
M: 4/4
K: Dminor
|:FEFE D2A2|d2A2 A2G2|FEFE D2 AB|
c2B2 A2G2|FEFE D2 A2|d2A2 A2G2|
FEFE DEFG|A2A2D4:|
FEFE DEFG|A2A2 D4:|

